X:165
T: Fahy's
M: 4/4
L: 1/8
S: Luke O'Malley vol 1
Z: B.Black
R: reel
K: A
AGED B,CDB,|E2 B,E GEBG|AGEF GABc| (3ded cB AcBG |
AGED B,CDB,|E2 B,E GEBG|AGEF GABA| GEDB, A2 (3EFG ||
A2 CE DCBG| AGED B,CDB, | EAA2 EAce | dcBG EAA2 |
EAce (3ded BG| AGEF GFGA | (3Bcd ed Bcdf | edBG A4 ||
